X:1
T:Title
%%score { ( 1 4 ) | ( 2 3 ) }
L:1/8
Q:1/4=100
M:4/4
K:Ab
V:1 treble nm="Grand Piano"
V:4 treble 
V:2 bass 
V:3 bass 
V:1
 [CE]2 [CE]>[CE] [G,DE][G,DG][G,DF][G,E] | [Ee]3 [Ec] [CA]2 [FB][Fc] | [Fd]2 [Fc]2 [FB]2 [FA]2 | %3
w: A.~W.~Larence * * * * * *|||
 [FA]2 G2 F2 E2 | E2 [CE]>[CE] [DE][DG][DF][DE] | [Ee]3 [Ec] [CA]2 [FB]2 | cedc c2 B2 | %7
w: ||||
[M:3/4] [CA]6 |[M:1/4] ce |[M:4/4] [Ge]2 [EG]2- [EG][Fd][Ec][DB] | [Ec]2 [CE]2- [CE][CA][CB][CA] | %11
w: ||||
 [FA]2 [EG]>A G2 F>G |[M:3/4] [DF]2 E4 |[M:1/4] ce |[M:4/4] [Ge]2 [EG]2- [EG][Fd][Ec][DB] | %15
w: ||||
 [Ec]2 [CE]2- [CE][CA][CB][CA] | A2 G2 e2 G2 | [CA]6 z2 |] %18
w: |||
V:2
 [A,,A,]2 [A,,A,]>[A,,A,] B,,B,,B,,B,, | [C,A,]3 [C,A,] [F,A,]2 [D,A,][C,=A,] | %2
 [B,,B,]2 [C,=A,]2 [D,B,]2 [=D,B,]2 | [E,B,]2 [E,B,E]2 [F,B,D]2 [G,B,D]2 | %4
 [A,C]2 [A,,A,]>[A,,A,] [B,,G,][B,,G,][B,,G,][B,,G,] | [C,A,]3 [C,A,] [F,A,]2 [D,A,]2 | %6
 [E,A,E][E,CE][E,B,E][E,A,E] [E,A,E]2 [E,G,D]2 |[M:3/4] [A,,A,]6 |[M:1/4][K:treble] [A,E][A,CA] | %9
[M:4/4][K:bass] [E,B,]2 [E,B,]2- [E,B,][E,B,][E,G,][E,G,] | %10
 [A,,A,]2 [A,,A,]2- [A,,A,][A,,A,][A,,A,][A,,A,] | [E,B,]2 z z/ F/ [E,B,E]2 D>E | %12
[M:3/4] z2[K:treble] C4 |[M:1/4] [A,E][A,CA] | %14
[M:4/4][K:bass] [E,B,]2 [E,B,]2- [E,B,][E,B,][E,G,][E,G,] | %15
 [A,,A,]2 [A,,A,]2- [A,,A,][A,,A,][A,,A,][A,,A,] | [E,B,D]2 [E,B,D]2 [E,B,D]2 [E,B,D]2 | %17
 [A,,A,]6 z2 |] %18
V:3
 x8 | x8 | x8 | x8 | x8 | x8 | x8 |[M:3/4] x6 |[M:1/4][K:treble] x2 |[M:4/4][K:bass] x8 | x8 | %11
 z2 [E,B,]2 z2 [E,G,]2 |[M:3/4] A,,6[K:treble] |[M:1/4] x2 |[M:4/4][K:bass] x8 | x8 | x8 | x8 |] %18
V:4
 x8 | x8 | x8 | x8 | x8 | x8 | x8 |[M:3/4] x6 |[M:1/4] x2 |[M:4/4] x8 | x8 | x8 |[M:3/4] A,6 | %13
[M:1/4] x2 |[M:4/4] x8 | x8 | x8 | x8 |] %18

